source/work/images/artifact_production.svg

<svg xmlns="http://www.w3.org/2000/svg" width="64" height="64" viewBox="0 0 64 64"><style type="text/css">.frame{fill:#FFFFFF;} .content{opacity:0.5;fill:#FFFFFF;}</style><path class="content" d="M59.5 35c-.276 0-.5-.224-.5-.5s.224-.5.5-.5h1c.276 0 .5.224.5.5s-.224.5-.5.5h-1zm-3 0c.276 0 .5-.224.5-.5s-.224-.5-.5-.5h-1c-.276 0-.5.224-.5.5s.224.5.5.5h1zm3-21h1c.276 0 .5-.224.5-.5s-.224-.5-.5-.5h-1c-.276 0-.5.224-.5.5s.224.5.5.5zm-7 21c.276 0 .5-.224.5-.5s-.224-.5-.5-.5h-1c-.276 0-.5.224-.5.5s.224.5.5.5h1zm-7.5-17c0-1.105.895-2 2-2h10c1.105 0 2 .895 2 2v12c0 1.105-.895 2-2 2h-10c-1.105 0-2-.895-2-2v-12zm12.291 12.941l-5.291-6.173-5.291 6.173c.094.029.188.059.291.059h10c.103 0 .197-.03.291-.059zm.671-13.128l-5.303 6.187 5.303 6.187.038-.187v-12l-.038-.187zm-11.253-.754l5.291 6.173 5.291-6.173c-.094-.029-.188-.059-.291-.059h-10c-.103 0-.197.03-.291.059zm-.709 12.941l.038.187 5.303-6.187-5.303-6.187-.038.187v12zm-2.5-16h1c.276 0 .5-.224.5-.5s-.224-.5-.5-.5h-1c-.276 0-.5.224-.5.5s.224.5.5.5zm-15 21c.276 0 .5-.224.5-.5s-.224-.5-.5-.5h-1c-.276 0-.5.224-.5.5s.224.5.5.5h1zm19-21h1c.276 0 .5-.224.5-.5s-.224-.5-.5-.5h-1c-.276 0-.5.224-.5.5s.224.5.5.5zm4 0h1c.276 0 .5-.224.5-.5s-.224-.5-.5-.5h-1c-.276 0-.5.224-.5.5s.224.5.5.5zm4 0h1c.276 0 .5-.224.5-.5s-.224-.5-.5-.5h-1c-.276 0-.5.224-.5.5s.224.5.5.5zm-7 21c.276 0 .5-.224.5-.5s-.224-.5-.5-.5h-1c-.276 0-.5.224-.5.5s.224.5.5.5h1zm-28-1h-1c-.276 0-.5.224-.5.5s.224.5.5.5h1c.276 0 .5-.224.5-.5s-.224-.5-.5-.5zm20 1c.276 0 .5-.224.5-.5s-.224-.5-.5-.5h-1c-.276 0-.5.224-.5.5s.224.5.5.5h1zm18.5 4v5.5h-1v-5.5l-.038-.187-4.875 5.687h-2.175l-4.875-5.687-.037.187v5.5h-1v-5.5c0-1.105.895-2 2-2h10c1.105 0 2 .895 2 2zm-1.709-.941c-.094-.029-.188-.059-.291-.059h-10c-.103 0-.197.03-.291.059l5.291 6.173 5.291-6.173zm-24.791-3.059c.276 0 .5-.224.5-.5s-.224-.5-.5-.5h-1c-.276 0-.5.224-.5.5s.224.5.5.5h1zm-5.5 2h10c1.105 0 2 .895 2 2v5.5h-1v-5.5l-.038-.187-4.875 5.687h-2.175l-4.875-5.687-.037.187v5.5h-1v-5.5c0-1.105.895-2 2-2zm10 1h-10c-.103 0-.197.03-.291.059l5.291 6.173 5.291-6.173c-.094-.029-.188-.059-.291-.059zm-.5-3c.276 0 .5-.224.5-.5s-.224-.5-.5-.5h-1c-.276 0-.5.224-.5.5s.224.5.5.5h1zm-21-1c-.276 0-.5.224-.5.5s.224.5.5.5h1c.276 0 .5-.224.5-.5s-.224-.5-.5-.5h-1zm-7-20c.276 0 .5-.224.5-.5s-.224-.5-.5-.5h-1c-.276 0-.5.224-.5.5s.224.5.5.5h1zm4 0c.276 0 .5-.224.5-.5s-.224-.5-.5-.5h-1c-.276 0-.5.224-.5.5s.224.5.5.5h1zm-5 20c-.276 0-.5.224-.5.5s.224.5.5.5h1c.276 0 .5-.224.5-.5s-.224-.5-.5-.5h-1zm-.5-18h10c1.105 0 2 .895 2 2v12c0 1.105-.895 2-2 2h-10c-1.105 0-2-.895-2-2v-12c0-1.105.895-2 2-2zm-.962 14.187l5.303-6.187-5.303-6.187-.038.187v12l.038.187zm11.253.754l-5.291-6.173-5.291 6.173c.094.029.188.059.291.059h10c.103 0 .197-.03.291-.059zm.671-13.128l-5.303 6.187 5.303 6.187.038-.187v-12l-.038-.187zm-.962-.813h-10c-.103 0-.197.03-.291.059l5.291 6.173 5.291-6.173c-.094-.029-.188-.059-.291-.059zm-.5-3c.276 0 .5-.224.5-.5s-.224-.5-.5-.5h-1c-.276 0-.5.224-.5.5s.224.5.5.5h1zm-11.5 25c0-1.105.895-2 2-2h10c1.105 0 2 .895 2 2v5.5h-1v-5.5l-.038-.187-4.875 5.687h-2.175l-4.875-5.687-.037.187v5.5h-1v-5.5zm1.709-.941l5.291 6.173 5.291-6.173c-.094-.029-.188-.059-.291-.059h-10c-.103 0-.197.03-.291.059zm4.791-4.059c-.276 0-.5.224-.5.5s.224.5.5.5h1c.276 0 .5-.224.5-.5s-.224-.5-.5-.5h-1zm10.5-9c.276 0 .5-.224.5-.5v-1c0-.276-.224-.5-.5-.5s-.5.224-.5.5v1c0 .276.224.5.5.5zm0 3c.276 0 .5-.224.5-.5v-1c0-.276-.224-.5-.5-.5s-.5.224-.5.5v1c0 .276.224.5.5.5zm0 3c.276 0 .5-.224.5-.5v-1c0-.276-.224-.5-.5-.5s-.5.224-.5.5v1c0 .276.224.5.5.5zm0-9c.276 0 .5-.224.5-.5v-1c0-.276-.224-.5-.5-.5s-.5.224-.5.5v1c0 .276.224.5.5.5zm0-3c.276 0 .5-.224.5-.5v-1c0-.276-.224-.5-.5-.5s-.5.224-.5.5v1c0 .276.224.5.5.5zm0 15c.276 0 .5-.224.5-.5v-1c0-.276-.224-.5-.5-.5s-.5.224-.5.5v1c0 .276.224.5.5.5zm0-24c.276 0 .5-.224.5-.5v-1c0-.276-.224-.5-.5-.5s-.5.224-.5.5v1c0 .276.224.5.5.5zm0 3c.276 0 .5-.224.5-.5v-1c0-.276-.224-.5-.5-.5s-.5.224-.5.5v1c0 .276.224.5.5.5zm0 3c.276 0 .5-.224.5-.5v-1c0-.276-.224-.5-.5-.5s-.5.224-.5.5v1c0 .276.224.5.5.5zm-2.5-2h1c.276 0 .5-.224.5-.5s-.224-.5-.5-.5h-1c-.276 0-.5.224-.5.5s.224.5.5.5zm24 21h1c.276 0 .5-.224.5-.5s-.224-.5-.5-.5h-1c-.276 0-.5.224-.5.5s.224.5.5.5zm-21.5 2c.276 0 .5-.224.5-.5v-1c0-.276-.224-.5-.5-.5s-.5.224-.5.5v1c0 .276.224.5.5.5zm-16.5-29h13c.276 0 .5-.224.5-.5s-.224-.5-.5-.5h-13c-.276 0-.5.224-.5.5s.224.5.5.5zm-2 27h1c.276 0 .5-.224.5-.5s-.224-.5-.5-.5h-1c-.276 0-.5.224-.5.5s.224.5.5.5zm0-21h1c.276 0 .5-.224.5-.5s-.224-.5-.5-.5h-1c-.276 0-.5.224-.5.5s.224.5.5.5zm18.5-7c.276 0 .5-.224.5-.5v-1c0-.276-.224-.5-.5-.5s-.5.224-.5.5v1c0 .276.224.5.5.5zm0 33c.276 0 .5-.224.5-.5v-1c0-.276-.224-.5-.5-.5s-.5.224-.5.5v1c0 .276.224.5.5.5zm0 3c.276 0 .5-.224.5-.5v-1c0-.276-.224-.5-.5-.5s-.5.224-.5.5v1c0 .276.224.5.5.5zm-16.5-33h13c.276 0 .5-.224.5-.5s-.224-.5-.5-.5h-13c-.276 0-.5.224-.5.5s.224.5.5.5zm36.5 18c.276 0 .5-.224.5-.5v-1c0-.276-.224-.5-.5-.5s-.5.224-.5.5v1c0 .276.224.5.5.5zm0 3c.276 0 .5-.224.5-.5v-1c0-.276-.224-.5-.5-.5s-.5.224-.5.5v1c0 .276.224.5.5.5zm0 6c.276 0 .5-.224.5-.5v-1c0-.276-.224-.5-.5-.5s-.5.224-.5.5v1c0 .276.224.5.5.5zm0-3c.276 0 .5-.224.5-.5v-1c0-.276-.224-.5-.5-.5s-.5.224-.5.5v1c0 .276.224.5.5.5zm0-9c.276 0 .5-.224.5-.5v-1c0-.276-.224-.5-.5-.5s-.5.224-.5.5v1c0 .276.224.5.5.5zm-18.5 10h1c.276 0 .5-.224.5-.5s-.224-.5-.5-.5h-1c-.276 0-.5.224-.5.5s.224.5.5.5zm18.5-16c.276 0 .5-.224.5-.5v-1c0-.276-.224-.5-.5-.5s-.5.224-.5.5v1c0 .276.224.5.5.5zm0 3c.276 0 .5-.224.5-.5v-1c0-.276-.224-.5-.5-.5s-.5.224-.5.5v1c0 .276.224.5.5.5zm0-6c.276 0 .5-.224.5-.5v-1c0-.276-.224-.5-.5-.5s-.5.224-.5.5v1c0 .276.224.5.5.5zm-14.5-2h1c.276 0 .5-.224.5-.5s-.224-.5-.5-.5h-1c-.276 0-.5.224-.5.5s.224.5.5.5zm4 0h1c.276 0 .5-.224.5-.5s-.224-.5-.5-.5h-1c-.276 0-.5.224-.5.5s.224.5.5.5zm-6.5 4c0-1.105.895-2 2-2h10c1.105 0 2 .895 2 2v12c0 1.105-.895 2-2 2h-10c-1.105 0-2-.895-2-2v-12zm12.291 12.941l-5.291-6.173-5.291 6.173c.094.029.188.059.291.059h10c.103 0 .197-.03.291-.059zm.671-13.128l-5.303 6.187 5.303 6.187.038-.187v-12l-.038-.187zm-11.253-.754l5.291 6.173 5.291-6.173c-.094-.029-.188-.059-.291-.059h-10c-.103 0-.197.03-.291.059zm-.709 12.941l.038.187 5.303-6.187-5.303-6.187-.038.187v12zm-2.5-16h1c.276 0 .5-.224.5-.5s-.224-.5-.5-.5h-1c-.276 0-.5.224-.5.5s.224.5.5.5zm12 0h1c.276 0 .5-.224.5-.5s-.224-.5-.5-.5h-1c-.276 0-.5.224-.5.5s.224.5.5.5zm6.5 29c.276 0 .5-.224.5-.5v-1c0-.276-.224-.5-.5-.5s-.5.224-.5.5v1c0 .276.224.5.5.5zm-2.5-29h1c.276 0 .5-.224.5-.5s-.224-.5-.5-.5h-1c-.276 0-.5.224-.5.5s.224.5.5.5zm2.5 26c.276 0 .5-.224.5-.5v-1c0-.276-.224-.5-.5-.5s-.5.224-.5.5v1c0 .276.224.5.5.5z"/><path class="frame" d="M60 3h-56c-1.657 0-3 1.343-3 3v45c0 1.657 1.343 3 3 3h21v6h-4.5c-.276 0-.5.224-.5.5s.224.5.5.5h23c.276 0 .5-.224.5-.5s-.224-.5-.5-.5h-4.5v-6h21c1.657 0 3-1.343 3-3v-45c0-1.657-1.343-3-3-3zm-22 57h-12v-6h12v6zm24-9c0 1.103-.897 2-2 2h-56c-1.103 0-2-.897-2-2v-6h60v6zm0-7h-60v-38c0-1.103.897-2 2-2h56c1.103 0 2 .897 2 2v38z"/></svg>

<?xml version="1.0" encoding="utf-8"?>
<!-- Generator: Adobe Illustrator 19.2.1, SVG Export Plug-In . SVG Version: 6.00 Build 0)  -->
<svg version="1.1" id="icons" xmlns="http://www.w3.org/2000/svg" xmlns:xlink="http://www.w3.org/1999/xlink" x="0px" y="0px"
	 width="64px" height="64px" viewBox="0 0 64 64" style="enable-background:new 0 0 64 64;" xml:space="preserve">
<style type="text/css">
	.frame{fill:#FFFFFF;}
	.content{opacity:0.5;fill:#FFFFFF;}
</style>
<path class="content" d="M59.5,35c-0.276,0-0.5-0.224-0.5-0.5s0.224-0.5,0.5-0.5h1c0.276,0,0.5,0.224,0.5,0.5S60.776,35,60.5,35
	H59.5z M56.5,35c0.276,0,0.5-0.224,0.5-0.5S56.776,34,56.5,34h-1c-0.276,0-0.5,0.224-0.5,0.5s0.224,0.5,0.5,0.5H56.5z M59.5,14h1
	c0.276,0,0.5-0.224,0.5-0.5S60.776,13,60.5,13h-1c-0.276,0-0.5,0.224-0.5,0.5S59.224,14,59.5,14z M52.5,35
	c0.276,0,0.5-0.224,0.5-0.5S52.776,34,52.5,34h-1c-0.276,0-0.5,0.224-0.5,0.5s0.224,0.5,0.5,0.5H52.5z M45,18c0-1.105,0.895-2,2-2
	h10c1.105,0,2,0.895,2,2v12c0,1.105-0.895,2-2,2H47c-1.105,0-2-0.895-2-2V18z M57.291,30.941L52,24.768l-5.291,6.173
	C46.803,30.97,46.897,31,47,31h10C57.103,31,57.197,30.97,57.291,30.941z M57.962,17.813L52.659,24l5.303,6.187
	C57.974,30.125,58,30.066,58,30V18C58,17.934,57.974,17.875,57.962,17.813z M46.709,17.059L52,23.232l5.291-6.173
	C57.197,17.03,57.103,17,57,17H47C46.897,17,46.803,17.03,46.709,17.059z M46,30c0,0.066,0.026,0.125,0.038,0.187L51.341,24
	l-5.303-6.187C46.026,17.875,46,17.934,46,18V30z M43.5,14h1c0.276,0,0.5-0.224,0.5-0.5S44.776,13,44.5,13h-1
	c-0.276,0-0.5,0.224-0.5,0.5S43.224,14,43.5,14z M28.5,35c0.276,0,0.5-0.224,0.5-0.5S28.776,34,28.5,34h-1
	c-0.276,0-0.5,0.224-0.5,0.5s0.224,0.5,0.5,0.5H28.5z M47.5,14h1c0.276,0,0.5-0.224,0.5-0.5S48.776,13,48.5,13h-1
	c-0.276,0-0.5,0.224-0.5,0.5S47.224,14,47.5,14z M51.5,14h1c0.276,0,0.5-0.224,0.5-0.5S52.776,13,52.5,13h-1
	c-0.276,0-0.5,0.224-0.5,0.5S51.224,14,51.5,14z M55.5,14h1c0.276,0,0.5-0.224,0.5-0.5S56.776,13,56.5,13h-1
	c-0.276,0-0.5,0.224-0.5,0.5S55.224,14,55.5,14z M48.5,35c0.276,0,0.5-0.224,0.5-0.5S48.776,34,48.5,34h-1
	c-0.276,0-0.5,0.224-0.5,0.5s0.224,0.5,0.5,0.5H48.5z M20.5,34h-1c-0.276,0-0.5,0.224-0.5,0.5s0.224,0.5,0.5,0.5h1
	c0.276,0,0.5-0.224,0.5-0.5S20.776,34,20.5,34z M40.5,35c0.276,0,0.5-0.224,0.5-0.5S40.776,34,40.5,34h-1
	c-0.276,0-0.5,0.224-0.5,0.5s0.224,0.5,0.5,0.5H40.5z M59,39v5.5h-1V39c0-0.066-0.026-0.125-0.038-0.187L53.087,44.5h-2.175
	l-4.875-5.687C46.026,38.875,46,38.934,46,39v5.5h-1V39c0-1.105,0.895-2,2-2h10C58.105,37,59,37.895,59,39z M57.291,38.059
	C57.197,38.03,57.103,38,57,38H47c-0.103,0-0.197,0.03-0.291,0.059L52,44.232L57.291,38.059z M32.5,35c0.276,0,0.5-0.224,0.5-0.5
	S32.776,34,32.5,34h-1c-0.276,0-0.5,0.224-0.5,0.5s0.224,0.5,0.5,0.5H32.5z M27,37h10c1.105,0,2,0.895,2,2v5.5h-1V39
	c0-0.066-0.026-0.125-0.038-0.187L33.087,44.5h-2.175l-4.875-5.687C26.026,38.875,26,38.934,26,39v5.5h-1V39
	C25,37.895,25.895,37,27,37z M37,38H27c-0.103,0-0.197,0.03-0.291,0.059L32,44.232l5.291-6.173C37.197,38.03,37.103,38,37,38z
	 M36.5,35c0.276,0,0.5-0.224,0.5-0.5S36.776,34,36.5,34h-1c-0.276,0-0.5,0.224-0.5,0.5s0.224,0.5,0.5,0.5H36.5z M15.5,34
	c-0.276,0-0.5,0.224-0.5,0.5s0.224,0.5,0.5,0.5h1c0.276,0,0.5-0.224,0.5-0.5S16.776,34,16.5,34H15.5z M8.5,14
	C8.776,14,9,13.776,9,13.5S8.776,13,8.5,13h-1C7.224,13,7,13.224,7,13.5S7.224,14,7.5,14H8.5z M12.5,14c0.276,0,0.5-0.224,0.5-0.5
	S12.776,13,12.5,13h-1c-0.276,0-0.5,0.224-0.5,0.5s0.224,0.5,0.5,0.5H12.5z M7.5,34C7.224,34,7,34.224,7,34.5S7.224,35,7.5,35h1
	C8.776,35,9,34.776,9,34.5S8.776,34,8.5,34H7.5z M7,16h10c1.105,0,2,0.895,2,2v12c0,1.105-0.895,2-2,2H7c-1.105,0-2-0.895-2-2V18
	C5,16.895,5.895,16,7,16z M6.038,30.187L11.341,24l-5.303-6.187C6.026,17.875,6,17.934,6,18v12C6,30.066,6.026,30.125,6.038,30.187z
	 M17.291,30.941L12,24.768l-5.291,6.173C6.803,30.97,6.897,31,7,31h10C17.103,31,17.197,30.97,17.291,30.941z M17.962,17.813
	L12.659,24l5.303,6.187C17.974,30.125,18,30.066,18,30V18C18,17.934,17.974,17.875,17.962,17.813z M17,17H7
	c-0.103,0-0.197,0.03-0.291,0.059L12,23.232l5.291-6.173C17.197,17.03,17.103,17,17,17z M16.5,14c0.276,0,0.5-0.224,0.5-0.5
	S16.776,13,16.5,13h-1c-0.276,0-0.5,0.224-0.5,0.5s0.224,0.5,0.5,0.5H16.5z M5,39c0-1.105,0.895-2,2-2h10c1.105,0,2,0.895,2,2v5.5
	h-1V39c0-0.066-0.026-0.125-0.038-0.187L13.087,44.5h-2.175l-4.875-5.687C6.026,38.875,6,38.934,6,39v5.5H5V39z M6.709,38.059
	L12,44.232l5.291-6.173C17.197,38.03,17.103,38,17,38H7C6.897,38,6.803,38.03,6.709,38.059z M11.5,34c-0.276,0-0.5,0.224-0.5,0.5
	s0.224,0.5,0.5,0.5h1c0.276,0,0.5-0.224,0.5-0.5S12.776,34,12.5,34H11.5z M22,25c0.276,0,0.5-0.224,0.5-0.5v-1
	c0-0.276-0.224-0.5-0.5-0.5s-0.5,0.224-0.5,0.5v1C21.5,24.776,21.724,25,22,25z M22,28c0.276,0,0.5-0.224,0.5-0.5v-1
	c0-0.276-0.224-0.5-0.5-0.5s-0.5,0.224-0.5,0.5v1C21.5,27.776,21.724,28,22,28z M22,31c0.276,0,0.5-0.224,0.5-0.5v-1
	c0-0.276-0.224-0.5-0.5-0.5s-0.5,0.224-0.5,0.5v1C21.5,30.776,21.724,31,22,31z M22,22c0.276,0,0.5-0.224,0.5-0.5v-1
	c0-0.276-0.224-0.5-0.5-0.5s-0.5,0.224-0.5,0.5v1C21.5,21.776,21.724,22,22,22z M22,19c0.276,0,0.5-0.224,0.5-0.5v-1
	c0-0.276-0.224-0.5-0.5-0.5s-0.5,0.224-0.5,0.5v1C21.5,18.776,21.724,19,22,19z M22,34c0.276,0,0.5-0.224,0.5-0.5v-1
	c0-0.276-0.224-0.5-0.5-0.5s-0.5,0.224-0.5,0.5v1C21.5,33.776,21.724,34,22,34z M22,10c0.276,0,0.5-0.224,0.5-0.5v-1
	C22.5,8.224,22.276,8,22,8s-0.5,0.224-0.5,0.5v1C21.5,9.776,21.724,10,22,10z M22,13c0.276,0,0.5-0.224,0.5-0.5v-1
	c0-0.276-0.224-0.5-0.5-0.5s-0.5,0.224-0.5,0.5v1C21.5,12.776,21.724,13,22,13z M22,16c0.276,0,0.5-0.224,0.5-0.5v-1
	c0-0.276-0.224-0.5-0.5-0.5s-0.5,0.224-0.5,0.5v1C21.5,15.776,21.724,16,22,16z M19.5,14h1c0.276,0,0.5-0.224,0.5-0.5
	S20.776,13,20.5,13h-1c-0.276,0-0.5,0.224-0.5,0.5S19.224,14,19.5,14z M43.5,35h1c0.276,0,0.5-0.224,0.5-0.5S44.776,34,44.5,34h-1
	c-0.276,0-0.5,0.224-0.5,0.5S43.224,35,43.5,35z M22,37c0.276,0,0.5-0.224,0.5-0.5v-1c0-0.276-0.224-0.5-0.5-0.5s-0.5,0.224-0.5,0.5
	v1C21.5,36.776,21.724,37,22,37z M5.5,8h13C18.776,8,19,7.776,19,7.5S18.776,7,18.5,7h-13C5.224,7,5,7.224,5,7.5S5.224,8,5.5,8z
	 M3.5,35h1C4.776,35,5,34.776,5,34.5S4.776,34,4.5,34h-1C3.224,34,3,34.224,3,34.5S3.224,35,3.5,35z M3.5,14h1
	C4.776,14,5,13.776,5,13.5S4.776,13,4.5,13h-1C3.224,13,3,13.224,3,13.5S3.224,14,3.5,14z M22,7c0.276,0,0.5-0.224,0.5-0.5v-1
	C22.5,5.224,22.276,5,22,5s-0.5,0.224-0.5,0.5v1C21.5,6.776,21.724,7,22,7z M22,40c0.276,0,0.5-0.224,0.5-0.5v-1
	c0-0.276-0.224-0.5-0.5-0.5s-0.5,0.224-0.5,0.5v1C21.5,39.776,21.724,40,22,40z M22,43c0.276,0,0.5-0.224,0.5-0.5v-1
	c0-0.276-0.224-0.5-0.5-0.5s-0.5,0.224-0.5,0.5v1C21.5,42.776,21.724,43,22,43z M5.5,10h13c0.276,0,0.5-0.224,0.5-0.5
	S18.776,9,18.5,9h-13C5.224,9,5,9.224,5,9.5S5.224,10,5.5,10z M42,28c0.276,0,0.5-0.224,0.5-0.5v-1c0-0.276-0.224-0.5-0.5-0.5
	s-0.5,0.224-0.5,0.5v1C41.5,27.776,41.724,28,42,28z M42,31c0.276,0,0.5-0.224,0.5-0.5v-1c0-0.276-0.224-0.5-0.5-0.5
	s-0.5,0.224-0.5,0.5v1C41.5,30.776,41.724,31,42,31z M42,37c0.276,0,0.5-0.224,0.5-0.5v-1c0-0.276-0.224-0.5-0.5-0.5
	s-0.5,0.224-0.5,0.5v1C41.5,36.776,41.724,37,42,37z M42,34c0.276,0,0.5-0.224,0.5-0.5v-1c0-0.276-0.224-0.5-0.5-0.5
	s-0.5,0.224-0.5,0.5v1C41.5,33.776,41.724,34,42,34z M42,25c0.276,0,0.5-0.224,0.5-0.5v-1c0-0.276-0.224-0.5-0.5-0.5
	s-0.5,0.224-0.5,0.5v1C41.5,24.776,41.724,25,42,25z M23.5,35h1c0.276,0,0.5-0.224,0.5-0.5S24.776,34,24.5,34h-1
	c-0.276,0-0.5,0.224-0.5,0.5S23.224,35,23.5,35z M42,19c0.276,0,0.5-0.224,0.5-0.5v-1c0-0.276-0.224-0.5-0.5-0.5s-0.5,0.224-0.5,0.5
	v1C41.5,18.776,41.724,19,42,19z M42,22c0.276,0,0.5-0.224,0.5-0.5v-1c0-0.276-0.224-0.5-0.5-0.5s-0.5,0.224-0.5,0.5v1
	C41.5,21.776,41.724,22,42,22z M42,16c0.276,0,0.5-0.224,0.5-0.5v-1c0-0.276-0.224-0.5-0.5-0.5s-0.5,0.224-0.5,0.5v1
	C41.5,15.776,41.724,16,42,16z M27.5,14h1c0.276,0,0.5-0.224,0.5-0.5S28.776,13,28.5,13h-1c-0.276,0-0.5,0.224-0.5,0.5
	S27.224,14,27.5,14z M31.5,14h1c0.276,0,0.5-0.224,0.5-0.5S32.776,13,32.5,13h-1c-0.276,0-0.5,0.224-0.5,0.5S31.224,14,31.5,14z
	 M25,18c0-1.105,0.895-2,2-2h10c1.105,0,2,0.895,2,2v12c0,1.105-0.895,2-2,2H27c-1.105,0-2-0.895-2-2V18z M37.291,30.941L32,24.768
	l-5.291,6.173C26.803,30.97,26.897,31,27,31h10C37.103,31,37.197,30.97,37.291,30.941z M37.962,17.813L32.659,24l5.303,6.187
	C37.974,30.125,38,30.066,38,30V18C38,17.934,37.974,17.875,37.962,17.813z M26.709,17.059L32,23.232l5.291-6.173
	C37.197,17.03,37.103,17,37,17H27C26.897,17,26.803,17.03,26.709,17.059z M26,30c0,0.066,0.026,0.125,0.038,0.187L31.341,24
	l-5.303-6.187C26.026,17.875,26,17.934,26,18V30z M23.5,14h1c0.276,0,0.5-0.224,0.5-0.5S24.776,13,24.5,13h-1
	c-0.276,0-0.5,0.224-0.5,0.5S23.224,14,23.5,14z M35.5,14h1c0.276,0,0.5-0.224,0.5-0.5S36.776,13,36.5,13h-1
	c-0.276,0-0.5,0.224-0.5,0.5S35.224,14,35.5,14z M42,43c0.276,0,0.5-0.224,0.5-0.5v-1c0-0.276-0.224-0.5-0.5-0.5s-0.5,0.224-0.5,0.5
	v1C41.5,42.776,41.724,43,42,43z M39.5,14h1c0.276,0,0.5-0.224,0.5-0.5S40.776,13,40.5,13h-1c-0.276,0-0.5,0.224-0.5,0.5
	S39.224,14,39.5,14z M42,40c0.276,0,0.5-0.224,0.5-0.5v-1c0-0.276-0.224-0.5-0.5-0.5s-0.5,0.224-0.5,0.5v1
	C41.5,39.776,41.724,40,42,40z"/>
<path class="frame" d="M60,3H4C2.343,3,1,4.343,1,6v45c0,1.657,1.343,3,3,3h21v6h-4.5c-0.276,0-0.5,0.224-0.5,0.5
	c0,0.276,0.224,0.5,0.5,0.5H25h14h4.5c0.276,0,0.5-0.224,0.5-0.5c0-0.276-0.224-0.5-0.5-0.5H39v-6h21c1.657,0,3-1.343,3-3V6
	C63,4.343,61.657,3,60,3z M38,60H26v-6h12V60z M62,51c0,1.103-0.897,2-2,2H39H25H4c-1.103,0-2-0.897-2-2v-6h60V51z M62,44H2V6
	c0-1.103,0.897-2,2-2h56c1.103,0,2,0.897,2,2V44z"/>
</svg>
